X:243
T:Old Dan Tucker
Z:Jack Campin, http://www.campin.me.uk/
F:Jack Campin's Nine-Note Tunebook
% last edit 18-10-2013
S:Elias Howe's Complete Preceptor for the Accordeon, 1843
M:2/4
L:1/8
Q:1/4=120
K:G
(3D/E/F/|:GG  (3GGG|GG GE|   GG    GG|DD EG:|
        |:B/Bc/ B2 |AG EG|[1 A/AB/ A2|AG EG:|\
                          [2 AB    GG|DD EG|]

